X:0677
T:Within a Mile of Edinburgh.
M:C
L:1/8
Q:1/4=76 "Slow"
I: ::
Z:Jack Campin * www.campin.me.uk * 2009
K:D
 f>g |(a<f)(e>f)  d2  (f<d)|(B<d)(A<F) A2(d>e)|(f<a)(b<d') (a<f)(d>f)|(Tf2e2) z2
(f>g)|(a<f)(e>f)  d2   fd  |(B<d)(A<F) A2(d>e)|(f<a)(b<d') (a<f)(e>f)| d4     z4|
      (d>e)(f>g) (a>f) d'2 |(d>e)(f>g) afd'd  |(d>e)`dB     AF```Ad  | fdfa Hb>c'Hd'b|
      a<f```f<d   B<d``A<d  |f<a``e>f  d2    |]

